svg/heart_settings_outline.svg

<svg xmlns="http://www.w3.org/2000/svg" viewBox="0 0 24 24"><path d="M7 22h2v2H7zm4 2h2v-2h-2zm4 0h2v-2h-2zm7-15.5c0 3.77-3.4 6.86-8.55 11.53L12 21.35l-1.45-1.32C5.4 15.36 2 12.27 2 8.5 2 5.41 4.42 3 7.5 3c1.74 0 3.41.81 4.5 2.08C13.09 3.81 14.76 3 16.5 3 19.58 3 22 5.41 22 8.5m-2 0c0-2-1.5-3.5-3.5-3.5-1.54 0-3.04 1-3.57 2.36h-1.86C10.54 6 9.04 5 7.5 5 5.5 5 4 6.5 4 8.5c0 2.89 3.14 5.74 7.89 10.05l.11.1.1-.1C16.86 14.24 20 11.39 20 8.5"/></svg>

<?xml version="1.0" encoding="UTF-8"?><!DOCTYPE svg PUBLIC "-//W3C//DTD SVG 1.1//EN" "http://www.w3.org/Graphics/SVG/1.1/DTD/svg11.dtd"><svg xmlns="http://www.w3.org/2000/svg" xmlns:xlink="http://www.w3.org/1999/xlink" version="1.1" id="mdi-heart-settings-outline" width="24" height="24" viewBox="0 0 24 24"><path d="M7 22H9V24H7V22M11 24H13V22H11V24M15 24H17V22H15V24M22 8.5C22 12.27 18.6 15.36 13.45 20.03L12 21.35L10.55 20.03C5.4 15.36 2 12.27 2 8.5C2 5.41 4.42 3 7.5 3C9.24 3 10.91 3.81 12 5.08C13.09 3.81 14.76 3 16.5 3C19.58 3 22 5.41 22 8.5M20 8.5C20 6.5 18.5 5 16.5 5C14.96 5 13.46 6 12.93 7.36H11.07C10.54 6 9.04 5 7.5 5C5.5 5 4 6.5 4 8.5C4 11.39 7.14 14.24 11.89 18.55L12 18.65L12.1 18.55C16.86 14.24 20 11.39 20 8.5Z" /></svg>
